images/Canada.svg

<svg width="52" height="50" viewBox="0 0 52 50" fill="none" xmlns="http://www.w3.org/2000/svg">
<path id="Combined Shape" fill-rule="evenodd" clip-rule="evenodd" d="M28.2744 5.09355V0.104774L22.8308 0.0440674L20.79 3.43035L23.2848 5.92598L28.2744 5.09355ZM22.4532 10.9148L15.8004 4.26112L12.474 7.58835L18.1472 12.6412L22.4532 10.9148ZM29.4478 14.8058L26.1264 12.39L26.7301 9.67317L32.4324 9.25238L39.9168 15.0728L38.2536 20.0624L35.7588 21.7264L33.264 20.0624V17.5676L30.7692 14.2412L29.4478 14.8058ZM49.0644 47.5052H47.4012C46.942 47.5052 46.5696 47.1329 46.5696 46.6736C46.5696 46.2143 46.942 45.842 47.4012 45.842H49.0644C49.5237 45.842 49.896 46.2143 49.896 46.6736C49.896 47.1329 49.5237 47.5052 49.0644 47.5052ZM49.0644 35.8628H50.7277C51.1869 35.8628 51.5593 35.4905 51.5593 35.0312C51.5593 34.5719 51.1869 34.1996 50.7277 34.1996H49.0644C48.6052 34.1996 48.2328 34.5719 48.2328 35.0312C48.2328 35.4905 48.6052 35.8628 49.0644 35.8628ZM39.0852 35.8628L44.0748 32.5364V29.21L39.0852 24.2204L35.7588 27.5468L32.4324 24.2204L29.106 26.7152L32.4324 30.8732L29.9376 35.8628L27.4428 31.7048L21.6216 29.21L24.948 22.5572L27.4428 19.2308L21.6216 15.9044L18.2952 19.2308L7.48441 8.41995L0.831601 15.9044L2.78586 23.9559L0 26.7152L2.4948 34.1996L22.4532 44.1788L24.948 40.0208L29.9376 43.3472L33.264 50L37.422 43.3472H44.0748L44.9064 38.3576L39.0852 35.8628Z" fill="#0E8784"/>
</svg>

<svg xmlns="http://www.w3.org/2000/svg" width="52" height="50" fill="none" xmlns:v="https://vecta.io/nano"><path fill-rule="evenodd" d="M28.274 5.094V.105L22.831.044 20.79 3.43l2.495 2.496 4.99-.832zm-5.821 5.821L15.8 4.261l-3.326 3.327 5.673 5.053 4.306-1.726zm6.995 3.891l-3.321-2.416.604-2.717 5.702-.421 7.484 5.82-1.663 4.99-2.495 1.664-2.495-1.664v-2.495l-2.495-3.326-1.321.565zm19.617 32.699h-1.663a.83.83 0 1 1 0-1.663h1.663a.83.83 0 1 1 0 1.663zm0-11.642h1.663a.83.83 0 1 0 0-1.663h-1.663a.83.83 0 1 0 0 1.663zm-9.979 0l4.99-3.326V29.21l-4.99-4.99-3.326 3.326-3.326-3.326-3.326 2.495 3.326 4.158-2.495 4.99-2.495-4.158-5.821-2.495 3.326-6.653 2.495-3.326-5.821-3.326-3.326 3.326L7.484 8.42.832 15.904l1.954 8.051L0 26.715 2.495 34.2l19.958 9.979 2.495-4.158 4.99 3.326L33.264 50l4.158-6.653h6.653l.832-4.99-5.821-2.495z" fill="#0e8784"/></svg>
